icons/op-wiki-24.svg

<svg width="24" height="24" viewBox="0 0 24 24" fill="none" xmlns="http://www.w3.org/2000/svg">
<path d="M12 8.23077C12 5.53846 6.4375 5 4 5V16.8462H5V17.9231C7 17.9231 11 17.2837 11 19H13C13 17.2837 17 17.9231 19 17.9231V16.8462H20V5C17.5625 5 12 5.53846 12 8.23077ZM5 6.07692C5.5 6.07692 5.9375 6.11058 6.375 6.14423H6.71875C8.6875 6.3125 10.75 6.75 10.9688 8.02885C11 8.09615 11 8.16346 11 8.23077V16.2404C9.53125 15.3317 6.8125 15.2308 5 15.2308V6.07692ZM19 15.2308C17.1875 15.2308 14.4688 15.3317 13 16.2404V8.23077C13 7.52404 14.0625 6.14423 19 6.07692V15.2308Z" fill="black"/>
</svg>

<svg xmlns="http://www.w3.org/2000/svg" width="24" height="24" viewBox="0 0 24 24"><path d="M12 8.231C12 5.538 6.438 5 4 5v11.846h1v1.077c2 0 6-.639 6 1.077h2c0-1.716 4-1.077 6-1.077v-1.077h1V5c-2.438 0-8 .538-8 3.231ZM5 6.077c.5 0 .938.034 1.375.067h.344c1.969.168 4.031.606 4.25 1.885a.458.458 0 0 1 .031.202v8.009c-1.469-.908-4.188-1.009-6-1.009V6.077Zm14 9.154c-1.812 0-4.531.101-6 1.009V8.231c0-.707 1.062-2.087 6-2.154v9.154Z"/></svg>
